X:1
T:Adios
T:Adios
C:Enric Madriguera
Z:All Rights Reserved
L:1/8
M:2/2
K:F
V:1 treble nm="Piano" snm="Pno."
%%MIDI program 0
V:1
 z4 z2 A2 |"Gm7""C7" c8- |"F" c8- |"Gm7" c3 d"C7" ef"C+"ec |"F6" d2 cB- B A2 B |"Gm7""C7" c8- | %6
w: A-|dios,|_|* in leav- ing you it|grieves me to _ say a-|dios.|
w: A-|dios,|_|* Me voy lin- da mo-|re- ma le- * jos de|ti.|
"F" c8- |"Gm7" c3 d"C7" ef"C+"ec |"F6" d2 cB- B A2 B |"C7" c2 BA- A G2 A | %10
w: _|* I'll be so lone- ly,|for you on- * ly, I|sigh and cry _ my a-|
w: _|* El- al- mahe- cha͡ una|pe- na por- * que͡~al par-|lir te- mo _ que tu͡~ol-|
"F" F2 F"Db7"_E- E_D"C7" C2- |"Gm7""C7" C8- |"F" C8- |"Gm7""C7" C8 |"F" z8 |"Gm7" z4 (3G2 A2 B2 | %16
w: dios, a- dios _ to you.|_||||And in this|
w: vi- des nues- * tro͡ amor|_||||Her- mo- sa|
"F" c8- |"Gm7" c3 d"C7" ef"C+"ec |"Dm" d2 c"D+"B- B A2 B |"Gm7" c2 B"C6"A- A G2"C7" A |"F" F8- | %21
w: heart|_ is mem- 'ry of what|used to be, _ dear for|you and me _ set a-|part.|
w: flor|_ mi al- ma cau- ti-|vas- te con _ la fra-|gan- cia de _ to can-|dor.|
"Bm7b5" F4"E7" z4 |"Am" e8 |"Dm" dc=B"F"A- AG"Bm7b5" F2 |"E7""Dm7" E8- |"E7" E4 z4 |"Am""A7" e8 | %27
w: _|Moon|watch- ing, and wait- * ing a-|bove,|_|soon|
w: _|Tu|es- res to- da _ mi͡~i- lu-|sión|_|Tu-|
"D7" dc=B"G9"A- AG A2 |"Gm7" G8- |"C7" G4 z2 A2 |"Gm7""C7" c8- |"F" c8- |"Gm7" c3 d"C7" ef"C+"ec | %33
w: it will be bless _ ing our|love.|_ A-|dios,|_|* for hap- py end- ings|
w: e- res mi dul- * ce can-|ción.|_ A-|dios,|_|* me voy lin- da mo-|
"F6" d2 cB- B A2 B |"Gm7" c8 |"D7" d2 cB- B A2 B |"Gm7" c2 B"C6"A- A G2"C7" A |"F" F8- | %38
w: I'll re- turn _ dear to|you,|with a love _ true, no|more to bid _ you a-|dios.|
w: re- na me _ voy de͡~a|qui|A llo- rar _ mi tris-|te- za le- * jos de|ti.|
"Gm7""C7" F8- |"F" F2 z2 z4 |] %40
w: _||
w: _||

